X: 12111
T: Evans'
R: jig
M: 6/8
K: Aminor
e|:a>ba ^d^fg|a3 f>gf|e>fe d>cd|1 e3 A2:|2 e3e2||
e|g>ag geg|f>gf fdf|e>fe dec|BAG G2d|
g>ag f>gf|e>fe dec|BcA AB^G|A3A2:|

